FINK
CUT[NUR MUSST DU MICH AUCH RECHT VERSTEHN]
REG[Europa, Mitteleuropa, Deutschland]
KEY[F0191A 08  C 4/4]
MEL[-5_  -4_.-3-3_1_  -7_.-6-6_-6_  -5_.-4-3_
    -2_  1_-7_-6_.-5  -5_.-4#-4#_
    -6_  2_1_-7_0-6  -6_.-5-5_
    -5_  -2_.-4-3_-5_  -2__.-4_  -3__. //] >>
FCT[Abschieds - Lied]
CMT[Strohenvariante zu F0191]
